rospo-icon-theme-classic-common/48x48/apps/mailspring.svg

<svg height="48" viewBox="0 0 48 48" width="48" xmlns="http://www.w3.org/2000/svg"><path d="m24 4a20 20 0 0 0 -20 20 20 20 0 0 0 20 20 20 20 0 0 0 20-20 20 20 0 0 0 -20-20z" fill="#23b7fb"/><path d="m12 16 12 12 12-12zm0 2.828125v15.171875l7.585938-7.585938zm24 0-7.585938 7.585937 7.585938 7.585938zm-15 9-6.171875 6.171875h18.34375l-6.171875-6.171875-1.585938 1.585937a2.0002 2.0002 0 0 1 -2.828124 0z" opacity=".2"/><path d="m4.0215 24.418a20 20 0 0 0 -.0215.582 20 20 0 0 0 20 20 20 20 0 0 0 20-20 20 20 0 0 0 -.021-.418 20 20 0 0 1 -19.979 19.418 20 20 0 0 1 -19.978-19.582z" opacity=".2"/><path d="m24 4a20 20 0 0 0 -20 20 20 20 0 0 0  .0215.418 20 20 0 0 1 19.978-19.418 20 20 0 0 1 19.979 19.582 20 20 0 0 0  .021-.582 20 20 0 0 0 -20-20z" fill="#fff" opacity=".2"/><path d="m12 15 12 12 12-12zm0 2.828125v15.171875l7.585938-7.585938zm24 0-7.585938 7.585937 7.585938 7.585938zm-15 9-6.171875 6.171875h18.34375l-6.171875-6.171875-1.585938 1.585937a2.0002 2.0002 0 0 1 -2.828124 0z" fill="#a7ffe8"/></svg>

<svg xmlns="http://www.w3.org/2000/svg" width="48" height="48" version="1.1" viewBox="0 0 48 48">
 <path style="fill:#23b7fb" d="m24 4a20 20 0 0 0 -20 20 20 20 0 0 0 20 20 20 20 0 0 0 20 -20 20 20 0 0 0 -20 -20z"/>
 <path style="opacity:0.2" d="M 12,16 24,28 36,16 12,16 Z M 12,18.828125 12,34 19.585938,26.414062 12,18.828125 Z m 24,0 -7.585938,7.585937 L 36,34 36,18.828125 Z m -15,9 L 14.828125,34 33.171875,34 27,27.828125 25.414062,29.414062 a 2.0002,2.0002 0 0 1 -2.828124,0 L 21,27.828125 Z"/>
 <path opacity=".2" d="m4.0215 24.418a20 20 0 0 0 -0.0215 0.582 20 20 0 0 0 20 20 20 20 0 0 0 20 -20 20 20 0 0 0 -0.021 -0.418 20 20 0 0 1 -19.979 19.418 20 20 0 0 1 -19.978 -19.582z"/>
 <path fill="#ffffff" opacity=".2" d="m24 4a20 20 0 0 0 -20 20 20 20 0 0 0 0.0215 0.418 20 20 0 0 1 19.978 -19.418 20 20 0 0 1 19.979 19.582 20 20 0 0 0 0.021 -0.582 20 20 0 0 0 -20 -20z"/>
 <path style="fill:#a7ffe8" d="M 12 15 L 24 27 L 36 15 L 12 15 z M 12 17.828125 L 12 33 L 19.585938 25.414062 L 12 17.828125 z M 36 17.828125 L 28.414062 25.414062 L 36 33 L 36 17.828125 z M 21 26.828125 L 14.828125 33 L 33.171875 33 L 27 26.828125 L 25.414062 28.414062 A 2.0002 2.0002 0 0 1 22.585938 28.414062 L 21 26.828125 z"/>
</svg>
